material/.icons/material/beaker-minus.svg

<svg xmlns="http://www.w3.org/2000/svg" viewBox="0 0 24 24"><path d="M23 17v2h-8v-2h8M3 3h18v2c-1.1 0-2 .9-2 2v5a6.005 6.005 0 00-5.2 9H7c-1.1 0-2-.9-2-2V7c0-1.1-.9-2-2-2V3m4 6v1h3V9H7m0 2v1h3v-1H7m3 5v-1H7v1h3m2-2v-1H7v1h5m0-6V7H7v1h5z"/></svg>

<?xml version="1.0" encoding="UTF-8"?><!DOCTYPE svg PUBLIC "-//W3C//DTD SVG 1.1//EN" "http://www.w3.org/Graphics/SVG/1.1/DTD/svg11.dtd"><svg xmlns="http://www.w3.org/2000/svg" xmlns:xlink="http://www.w3.org/1999/xlink" version="1.1" id="mdi-beaker-minus" width="24" height="24" viewBox="0 0 24 24"><path d="M23 17V19H15V17H23M3 3H21V5C19.9 5 19 5.9 19 7V12C15.69 12 13 14.69 13 18C13 19.09 13.29 20.12 13.8 21H7C5.9 21 5 20.1 5 19V7C5 5.9 4.1 5 3 5V3M7 9V10H10V9H7M7 11V12H10V11H7M10 16V15H7V16H10M12 14V13H7V14H12M12 8V7H7V8H12Z" /></svg>
